X:17640
T:Tonada (CT 317)
R:Tonada
C:Tradicional
S:Música Tradicional Asturiana, (C) Tello & Tito. Asturies, 2001.
S:http://pagina.de/MusTradAst <telloytito@asturies.org>
N:Canción de empleo indeterminado, transcrita en Uviéu.
N:Suele cantarse con acompañamiento de gaita.
N:El último período de la frase, en ésta y otras canciones análogas, lo transporta una octava alta el cantador cuando quiere hacer alarde de una voz potente.
O:Uviéu
A:Asturies
Z:Cancioneru de Torner 317
M:3/4
L:1/8
Q:1/4=60
W:Subí El Puertu de Payares, (bis)
W:subílu con muncha pena, (bis)
W:porque dexé los amores
W:xunto La Pola L.lena.
K:G
(3def
|:[M:3/4]g2 (f3/4g/4 (3f/2e/2d/2 c)d|
[M:2/4]
[L:1/8]
(e3/2f/4e/4) (d3/2(3e/4d/4c/4|
[M:3/4]
[L:1/8]
B4) (3def|
g2 (f3/4g/4 (3f/2e/2d/2 c) d|
(e3/2f/4e/4) (d3/2(3e/4d/4c/4 B3/2(3c/4B/4A/4|
G2) z2 (3ABc|
[M:2/4]
[L:1/8]
d3/2 (c/4B/4 A) d|d3/2 ((3e/4f/4e/4 d3/2(3e/4d/4c/4|
B3/2 (3c/4A/4B/4 G(5A/4B/4A/4G/4F/4|[1 G2) z2 (3def:|[2 G2) z4||


